src/_h5ai/public/images/themes/default/bin.svg

<svg xmlns="http://www.w3.org/2000/svg" width="20" height="20" viewBox="0 0 20 20">
  <path fill="#555" d="M 8.59375 3 L 8 5.09375 L 6.84375 5.8125 L 4.625 5.34375 L 3.21875 7.65625 L 4.84375 9.3125 L 4.84375 10.6875 L 3.21875 12.34375 L 4.625 14.65625 L 6.84375 14.1875 L 8 14.90625 L 8.59375 17 L 11.40625 17 L 12.09375 14.90625 L 13.15625 14.1875 L 15.375 14.65625 L 16.78125 12.34375 L 15.25 10.6875 L 15.25 9.3125 L 16.78125 7.65625 L 15.375 5.34375 L 13.15625 5.8125 L 12.09375 5.09375 L 11.40625 3 L 8.59375 3 z M 10 7.5 C 11.380712 7.5 12.5 8.6192881 12.5 10 C 12.5 11.380712 11.380712 12.5 10 12.5 C 8.6192881 12.5 7.5 11.380712 7.5 10 C 7.5 8.6192881 8.6192881 7.5 10 7.5 z"/>
</svg>

<?xml version="1.0" encoding="utf-8"?>
<!-- Generator: Adobe Illustrator 23.0.1, SVG Export Plug-In . SVG Version: 6.00 Build 0)  -->
<svg version="1.1" id="Calque_1" xmlns="http://www.w3.org/2000/svg" xmlns:xlink="http://www.w3.org/1999/xlink" x="0px" y="0px"
	 viewBox="0 0 20 20" style="enable-background:new 0 0 20 20;" xml:space="preserve">
<style type="text/css">
	.st0{fill:#B7B7B7;}
</style>
<path class="st0" d="M8.6,3L8,5.1L6.8,5.8L4.6,5.3L3.2,7.7l1.6,1.7v1.4l-1.6,1.7l1.4,2.3l2.2-0.5L8,14.9L8.6,17h2.8l0.7-2.1l1.1-0.7
	l2.2,0.5l1.4-2.3l-1.5-1.7V9.3l1.5-1.7l-1.4-2.3l-2.2,0.5l-1.1-0.7L11.4,3H8.6z M10,7.5c1.4,0,2.5,1.1,2.5,2.5s-1.1,2.5-2.5,2.5
	S7.5,11.4,7.5,10S8.6,7.5,10,7.5z"/>
</svg>
